src/images/icon/icon_cluster.svg

<svg height="32" viewBox="0 0 32 32" width="32" xmlns="http://www.w3.org/2000/svg"><g fill="none" fill-rule="evenodd"><rect fill="#36435c" height="8" rx="1.5" width="25" x="2" y="1"/><path d="m4.97783 3h1.99929v4h-1.99929z" fill="#e8eef4"/><path d="m8.976409 3h1.99929v4h-1.99929z" fill="#e8eef4"/><path d="m18.997514 4.5h6v1h-6z" fill="#b6c2cd"/><g transform="translate(2 10)"><path d="m23.5 0c.8284271 0 1.5.67157288 1.5 1.5v.78l-2.1459467-1.23844176c-1.250231-.72207765-2.7906506-.72207765-4.0408817 0l-6.0241976 3.47930771c-1.2442583.71862806-2.0128899 2.04374514-2.0199916 3.47974923l-9.2689824-.00061518c-.82842712 0-1.5-.67157288-1.5-1.5v-5c0-.82842712.67157288-1.5 1.5-1.5zm-1.5672399 2.25014929.1710934.09033168 2.8961465 1.67251903v2.487c0 .82842712-.6715729 1.5-1.5 1.5h-11.231l.0063349-.15988433c.0552509-.77770222.4650663-1.48777547 1.1107116-1.9244923l.1531273-.09583469 6.0241976-3.47930771c.7298831-.42154787 1.6170382-.45165843 2.3693887-.09033168z" fill="#36435c"/><g fill="#e8eef4"><path d="m2.97783 2h1.99929v4h-1.99929z"/><path d="m6.976409 2h1.99929v4h-1.99929z"/></g></g><g transform="translate(2 19)"><path d="m10.768 0 .0009327 5.97930771c0 .72245738.192815 1.4174714.5421153 2.02206601l-9.811048-.00137372c-.82842712 0-1.5-.67157288-1.5-1.5v-5c0-.82842712.67157288-1.5 1.5-1.5zm12.732 0c.8284271 0 1.5.67157288 1.5 1.5v5c0 .82842712-.6715729 1.5-1.5 1.5l-10.2294618.00144147c-.5788213-.44067362-.9433231-1.11130094-.9952033-1.84155714l-.0064022-.18057662-.0009327-5.97930771z" fill="#36435c"/><path d="m2.97783 2h1.99929v4h-1.99929z" fill="#e8eef4"/><path d="m6.976409 2h1.99929v4h-1.99929z" fill="#e8eef4"/><path d="m16.997514 3.5h6v1h-6z" fill="#b6c2cd"/></g><g transform="translate(14.27 12)"><path d="m7.23935171.34048097-5.97870342 3.47930771c-.78009188.45397463-1.26064829 1.29295435-1.26064829 2.20090361v6.95861541c0 .9079493.48055641 1.746929 1.26064829 2.2009036l5.97870342 3.4793077c.78009188.4539747 1.7412047.4539747 2.52129658 0l5.97870341-3.4793077c.7800919-.4539746 1.2606483-1.2929543 1.2606483-2.2009036v-6.95861541c0-.90794926-.4805564-1.74692898-1.2606483-2.20090361l-5.97870341-3.47930771c-.78009188-.45397463-1.7412047-.45397463-2.52129658 0z" fill="#36435c" fill-rule="nonzero"/><path d="m7.23935171.34048097-5.97870342 3.47930771c-.78009188.45397463-1.26064829 1.29295435-1.26064829 2.20090361v6.95861541c0 .9079493.48055641 1.746929 1.26064829 2.2009036l5.97870342 3.4793077c.78009188.4539747 1.7412047.4539747 2.52129658 0l5.97870341-3.4793077c.7800919-.4539746 1.2606483-1.2929543 1.2606483-2.2009036v-6.95861541c0-.90794926-.4805564-1.74692898-1.2606483-2.20090361l-5.97870341-3.47930771c-.78009188-.45397463-1.7412047-.45397463-2.52129658 0z" fill="#36435c" fill-rule="nonzero"/><g stroke="#e8eef4"><path d="m8.5 2.375v3.5625"/><path d="m13.085147 5.057435.012193 3.54138" transform="matrix(.5 .8660254 -.8660254 .5 12.458951 -7.923287)"/><path d="m13.09734 10.401185-.012193 3.54138" transform="matrix(-.5 .8660254 -.8660254 -.5 30.178017 6.920463)"/><path d="m8.5 13.0625v3.5625" transform="matrix(-1 0 0 -1 17 29.6875)"/><path d="m3.90266 10.401185.012193 3.54138" transform="matrix(-.5 -.8660254 .8660254 -.5 -4.678017 21.642895)"/><path d="m3.914853 5.057435-.012193 3.54138" transform="matrix(.5 -.8660254 .8660254 .5 -3.958951 6.799145)"/></g><path d="m8.5 5.9375v3.5625" stroke="#b6c2cd"/><path d="m10.024318 6.838685.012193 3.54138" stroke="#b6c2cd" transform="matrix(.5 .8660254 -.8660254 .5 12.471144 -4.381906)"/><path d="m10.036511 8.619935-.012193 3.54138" stroke="#b6c2cd" transform="matrix(-.5 .8660254 -.8660254 -.5 24.044166 6.899344)"/><path d="m8.5 9.5v3.5625" stroke="#b6c2cd" transform="matrix(-1 0 0 -1 17 22.5625)"/><path d="m6.963489 8.619935.012193 3.54138" stroke="#b6c2cd" transform="matrix(-.5 -.8660254 .8660254 -.5 1.455834 21.621776)"/><path d="m6.975682 6.838685-.012193 3.54138" stroke="#b6c2cd" transform="matrix(.5 -.8660254 .8660254 .5 -3.971144 10.340526)"/><ellipse cx="8.5" cy="9.5" rx="3.968383" ry="4" stroke="#e8eef4"/><ellipse cx="8.5" cy="9.5" rx="3.968383" ry="4" stroke="#e8eef4"/></g></g></svg>

<?xml version="1.0" encoding="UTF-8"?>
<svg width="32px" height="32px" viewBox="0 0 32 32" version="1.1" xmlns="http://www.w3.org/2000/svg" xmlns:xlink="http://www.w3.org/1999/xlink">
    
    <g id="Dashboard" stroke="none" stroke-width="1" fill="none" fill-rule="evenodd">
        <g id="00-Menu-交互备份" transform="translate(-213.000000, -230.000000)">
            <g id="编组-15" transform="translate(213.000000, 230.000000)">
                <g id="编组-10" transform="translate(2.000000, 1.000000)">
                    <rect id="矩形" fill="#36435C" x="0" y="0" width="25" height="8" rx="1.5"></rect>
                    <rect id="矩形" fill="#E8EEF4" x="2.9778299" y="2" width="1.99928976" height="4"></rect>
                    <rect id="矩形备份-6" fill="#E8EEF4" x="6.97640942" y="2" width="1.99928976" height="4"></rect>
                    <rect id="矩形备份-7" fill="#B6C2CD" x="16.9975142" y="3.5" width="6" height="1"></rect>
                </g>
                <g id="编组-10备份" transform="translate(2.000000, 10.000000)">
                    <path d="M23.5,0 C24.3284271,-1.52179594e-16 25,0.671572875 25,1.5 L25,2.28 L22.8540533,1.04155824 C21.6038223,0.319480586 20.0634027,0.319480586 18.8131716,1.04155824 L12.788974,4.52086595 C11.5447157,5.23949401 10.7760841,6.56461109 10.7689824,8.00061518 L1.5,8 C0.671572875,8 1.01453063e-16,7.32842712 0,6.5 L0,1.5 C-1.01453063e-16,0.671572875 0.671572875,1.52179594e-16 1.5,0 L23.5,0 Z M21.9327601,2.25014929 L22.1038535,2.34048097 L25,4.013 L25,6.5 C25,7.32842712 24.3284271,8 23.5,8 L12.269,8 L12.2753349,7.84011567 C12.3305858,7.06241345 12.7404012,6.3523402 13.3860465,5.91562337 L13.5391738,5.81978868 L19.5633714,2.34048097 C20.2932545,1.9189331 21.1804096,1.88882254 21.9327601,2.25014929 Z" id="形状结合" fill="#36435C"></path>
                    <rect id="矩形" fill="#E8EEF4" x="2.9778299" y="2" width="1.99928976" height="4"></rect>
                    <rect id="矩形备份-6" fill="#E8EEF4" x="6.97640942" y="2" width="1.99928976" height="4"></rect>
                </g>
                <g id="编组-10备份-2" transform="translate(2.000000, 19.000000)">
                    <path d="M10.768,0 L10.7689327,5.97930771 C10.7689327,6.70176509 10.9617477,7.39677911 11.311048,8.00137372 L1.5,8 C0.671572875,8 1.01453063e-16,7.32842712 0,6.5 L0,1.5 C-1.01453063e-16,0.671572875 0.671572875,1.52179594e-16 1.5,0 L10.768,0 Z M23.5,0 C24.3284271,-1.52179594e-16 25,0.671572875 25,1.5 L25,6.5 C25,7.32842712 24.3284271,8 23.5,8 L13.2705382,8.00144147 C12.6917169,7.56076785 12.3272151,6.89014053 12.2753349,6.15988433 L12.2689327,5.97930771 L12.268,0 L23.5,0 Z" id="形状结合" fill="#36435C"></path>
                    <rect id="矩形" fill="#E8EEF4" x="2.9778299" y="2" width="1.99928976" height="4"></rect>
                    <rect id="矩形备份-6" fill="#E8EEF4" x="6.97640942" y="2" width="1.99928976" height="4"></rect>
                    <rect id="矩形备份-7" fill="#B6C2CD" x="16.9975142" y="3.5" width="6" height="1"></rect>
                </g>
                <g id="编组-10" transform="translate(14.270000, 12.000000)">
                    <path d="M7.23935171,0.340480974 L1.26064829,3.81978868 C0.480556414,4.27376331 0,5.11274303 0,6.02069229 L0,12.9793077 C0,13.887257 0.480556414,14.7262367 1.26064829,15.1802113 L7.23935171,18.659519 C8.01944359,19.1134937 8.98055641,19.1134937 9.76064829,18.659519 L15.7393517,15.1802113 C16.5194436,14.7262367 17,13.887257 17,12.9793077 L17,6.02069229 C17,5.11274303 16.5194436,4.27376331 15.7393517,3.81978868 L9.76064829,0.340480974 C8.98055641,-0.113493658 8.01944359,-0.113493658 7.23935171,0.340480974 Z" id="路径" fill="#36435C" fill-rule="nonzero"></path>
                    <path d="M7.23935171,0.340480974 L1.26064829,3.81978868 C0.480556414,4.27376331 0,5.11274303 0,6.02069229 L0,12.9793077 C0,13.887257 0.480556414,14.7262367 1.26064829,15.1802113 L7.23935171,18.659519 C8.01944359,19.1134937 8.98055641,19.1134937 9.76064829,18.659519 L15.7393517,15.1802113 C16.5194436,14.7262367 17,13.887257 17,12.9793077 L17,6.02069229 C17,5.11274303 16.5194436,4.27376331 15.7393517,3.81978868 L9.76064829,0.340480974 C8.98055641,-0.113493658 8.01944359,-0.113493658 7.23935171,0.340480974 Z" id="路径备份" fill="#36435C" fill-rule="nonzero"></path>
                    <line x1="8.5" y1="2.375" x2="8.5" y2="5.9375" id="路径-2" stroke="#E8EEF4"></line>
                    <line x1="13.0851466" y1="5.05743472" x2="13.09734" y2="8.59881528" id="路径-2" stroke="#E8EEF4" transform="translate(13.091243, 6.828125) rotate(60.000000) translate(-13.091243, -6.828125) "></line>
                    <line x1="13.09734" y1="10.4011847" x2="13.0851466" y2="13.9425653" id="路径-2" stroke="#E8EEF4" transform="translate(13.091243, 12.171875) rotate(120.000000) translate(-13.091243, -12.171875) "></line>
                    <line x1="8.5" y1="13.0625" x2="8.5" y2="16.625" id="路径-2" stroke="#E8EEF4" transform="translate(8.500000, 14.843750) rotate(180.000000) translate(-8.500000, -14.843750) "></line>
                    <line x1="3.90266004" y1="10.4011847" x2="3.91485336" y2="13.9425653" id="路径-2" stroke="#E8EEF4" transform="translate(3.908757, 12.171875) rotate(240.000000) translate(-3.908757, -12.171875) "></line>
                    <line x1="3.91485336" y1="5.05743472" x2="3.90266004" y2="8.59881528" id="路径-2" stroke="#E8EEF4" transform="translate(3.908757, 6.828125) rotate(300.000000) translate(-3.908757, -6.828125) "></line>
                    <line x1="8.5" y1="5.9375" x2="8.5" y2="9.5" id="路径-2" stroke="#B6C2CD"></line>
                    <line x1="10.0243178" y1="6.83868472" x2="10.0365111" y2="10.3800653" id="路径-2" stroke="#B6C2CD" transform="translate(10.030414, 8.609375) rotate(60.000000) translate(-10.030414, -8.609375) "></line>
                    <line x1="10.0365111" y1="8.61993472" x2="10.0243178" y2="12.1613153" id="路径-2" stroke="#B6C2CD" transform="translate(10.030414, 10.390625) rotate(120.000000) translate(-10.030414, -10.390625) "></line>
                    <line x1="8.5" y1="9.5" x2="8.5" y2="13.0625" id="路径-2" stroke="#B6C2CD" transform="translate(8.500000, 11.281250) rotate(180.000000) translate(-8.500000, -11.281250) "></line>
                    <line x1="6.96348891" y1="8.61993472" x2="6.97568223" y2="12.1613153" id="路径-2" stroke="#B6C2CD" transform="translate(6.969586, 10.390625) rotate(240.000000) translate(-6.969586, -10.390625) "></line>
                    <line x1="6.97568223" y1="6.83868472" x2="6.96348891" y2="10.3800653" id="路径-2" stroke="#B6C2CD" transform="translate(6.969586, 8.609375) rotate(300.000000) translate(-6.969586, -8.609375) "></line>
                    <ellipse id="椭圆形" stroke="#E8EEF4" cx="8.5" cy="9.5" rx="3.96838258" ry="4"></ellipse>
                    <ellipse id="椭圆形备份" stroke="#E8EEF4" cx="8.5" cy="9.5" rx="3.96838258" ry="4"></ellipse>
                </g>
            </g>
        </g>
    </g>
</svg>
